build/category/GridOutline.svg

<svg xmlns="http://www.w3.org/2000/svg" fill="none" viewBox="0 0 24 24" focusable="false"><path d="M0 0H24V24H0z"/><path fill="#74767B" fill-rule="evenodd" d="M4 5.3C4 4.58203 4.58203 4 5.3 4L9.7 4C10.418 4 11 4.58203 11 5.3L11 9.7C11 10.418 10.418 11 9.7 11L5.3 11C4.58203 11 4 10.418 4 9.7L4 5.3ZM14.3 4C13.582 4 13 4.58203 13 5.3L13 9.7C13 10.418 13.582 11 14.3 11L18.7 11C19.418 11 20 10.418 20 9.7L20 5.3C20 4.58203 19.418 4 18.7 4L14.3 4ZM5.3 5.3L9.7 5.3L9.7 9.7L5.3 9.7L5.3 5.3ZM18.7 5.3L14.3 5.3L14.3 9.7L18.7 9.7L18.7 5.3ZM5.3 13C4.58203 13 4 13.582 4 14.3L4 18.7C4 19.418 4.58203 20 5.3 20L9.7 20C10.418 20 11 19.418 11 18.7L11 14.3C11 13.582 10.418 13 9.7 13L5.3 13ZM14.3 13C13.582 13 13 13.582 13 14.3L13 18.7C13 19.418 13.582 20 14.3 20L18.7 20C19.418 20 20 19.418 20 18.7L20 14.3C20 13.582 19.418 13 18.7 13L14.3 13ZM9.7 14.3L5.3 14.3L5.3 18.7L9.7 18.7L9.7 14.3ZM18.7 14.3L14.3 14.3L14.3 18.7L18.7 18.7L18.7 14.3Z"/></svg>

<svg xmlns="http://www.w3.org/2000/svg" fill="none" viewBox="0 0 24 24" focusable="false"><path fill="#74767B" fill-rule="evenodd" d="M5.29 4C4.58 4 4 4.58 4 5.29V9.7c0 .71.58 1.3 1.29 1.3H9.7c.71 0 1.3-.59 1.3-1.3V5.29C11 4.58 10.41 4 9.7 4zm9 0C13.58 4 13 4.58 13 5.29V9.7c0 .71.58 1.3 1.29 1.3h4.41c.71 0 1.3-.59 1.3-1.3V5.29C20 4.58 19.41 4 18.7 4zM9.7 5.29H5.29V9.7H9.7zm9 0h-4.41V9.7h4.41zM5.29 13C4.58 13 4 13.58 4 14.3v4.4c0 .71.58 1.3 1.29 1.3H9.7c.71 0 1.3-.59 1.3-1.3v-4.4c0-.72-.59-1.3-1.3-1.3zm9 0c-.71 0-1.29.58-1.29 1.3v4.4c0 .71.58 1.3 1.29 1.3h4.41c.71 0 1.3-.59 1.3-1.3v-4.4c0-.72-.59-1.3-1.3-1.3zM9.7 14.3H5.29v4.4H9.7zm9 0h-4.41v4.4h4.41z"/></svg>
